X: 3
T: A Fig For A Kiss
R: slip jig
M: 9/8
L: 1/8
K: Edor
|: G2 B E2 B BAG | F2 A D2 d AGF | |: g2 e g2 e e2 B | f2 d f2 d A2 f |2 g2 e f2 d e2 c | BdB A>GF E3 ||


Tune 750	Setting 13851

